X: 103
T: Buffalo Society Song (c)
C: Teton Sioux band 1911-1914
N: Derived from sioux103.krn
O: South Dakota, U.S.A.
N: Teton Sioux Music by Frances Densmore, 1918
Z: transcribed to **kern format by Craig Sapp
L: 1/16
M: 2/4
Q: 1/4=58
K: D clef=treble
%%linebreak <none>
F4F3 F [I:setbarnb 2]| 
F2> F2F4 | 
E4E3 E | 
E2> D2D4 | 
B,4B,3 B, ||  
[M:3/4]^B,2> B,2B,7B, ||  
[M:2/4]E4E3 E | 
E2> D2D4 | 
B,4B,3 B, ||  
[M:3/4]^B,2> B,2B,7B, ||  
[M:2/4]B,4^B,3 B, ||  
[M:3/4]D2> D2 D2> ^B,2B,4 | 
^B,4B,2> B,2 B,3 B, | 
^B,12 |]  



